modules/zondicons/icons/at-symbol.svg

<?xml version="1.0" encoding="UTF-8" standalone="no"?>
<svg width="20px" height="20px" viewBox="0 0 20 20" version="1.1" xmlns="http://www.w3.org/2000/svg" xmlns:xlink="http://www.w3.org/1999/xlink">
    <!-- Generator: Sketch 3.7.2 (28276) - http://www.bohemiancoding.com/sketch -->
    <title>at-symbol</title>
    <desc>Created with Sketch.</desc>
    <defs></defs>
    <g id="Page-1" stroke="none" stroke-width="1" fill="none" fill-rule="evenodd">
        <g id="at-symbol" fill="#000000">
            <path d="M13.6038462,13.465884 C14.2335946,14.3918325 15.2957747,15 16.5,15 C18.4329966,15 20,13.4329966 20,11.4999996 L20,10 L19.8315922,10 L20,10 C20,4.4771525 15.5228475,0 10,0 C4.4771525,0 0,4.4771525 0,10 C0,15.5228475 4.4771525,20 10,20 C11.6078966,20 13.1271602,19.6205173 14.4731143,18.9462285 L14.4731143,18.9462285 L13.5784914,17.1569828 C12.5017282,17.6964138 11.2863173,18 10,18 C5.581722,18 2,14.418278 2,10 C2,5.581722 5.581722,2 10,2 C14.418278,2 18,5.581722 18,10 L18,10.7499176 L18,11.5 C17.9999117,12.3284424 17.3341474,13 16.5,13 C15.6715729,13 15,12.3256778 15,11.4998351 L15,9.16840779 L15,5 L13,5 L13,5.99963381 C12.1643395,5.37194482 11.1256059,5 10,5 C7.23857625,5 5,7.23857625 5,10 C5,12.7614237 7.23857625,15 10,15 C11.4158008,15 12.6941617,14.4115493 13.6038462,13.465884 L13.6038462,13.465884 Z M10,13 C11.6568542,13 13,11.6568542 13,10 C13,8.34314575 11.6568542,7 10,7 C8.34314575,7 7,8.34314575 7,10 C7,11.6568542 8.34314575,13 10,13 Z" id="Combined-Shape"></path>
        </g>
    </g>
</svg>

<svg width="20" height="20" viewBox="0 0 20 20" xmlns="http://www.w3.org/2000/svg"><path d="M13.604 13.466A3.5 3.5 0 0 0 20 11.5V10h-.168H20c0-5.523-4.477-10-10-10S0 4.477 0 10s4.477 10 10 10c1.608 0 3.127-.38 4.473-1.054l-.895-1.789A8 8 0 1 1 18 10v1.5c0 .828-.666 1.5-1.5 1.5-.828 0-1.5-.674-1.5-1.5V5h-2v1a5 5 0 1 0 .604 7.466zM10 13a3 3 0 1 0 0-6 3 3 0 0 0 0 6z" fill="#000" fill-rule="evenodd"/></svg>
